icons/gbacw-icon_wagon.svg

<svg xmlns="http://www.w3.org/2000/svg" xml:space="preserve" baseProfile="tiny" overflow="visible" version="1.2" viewBox="0 0 600 600"><path fill="#0B0B0B" d="M524.213 173.992c-1.174-3.176-4.646-4.572-7.823-4.14-43.852 2.172-88.397 5.25-131.832 4.522-56.256 4.287-112.06 1.427-168.386-.728-3.719-.038-7.353-.828-10.887-1.903-5.783-1.903-11.629 1.137-17.499.754-24.851 0-49.764-1.508-74.319-5.499-4.906-.704-9.688-2.373-14.668-2.422-7.551-.247-13.705 8.44-10.986 15.484 13.245 25.37 27.746 50.207 38.836 76.701-69.509 34.106-67.929 136.957 2.564 168.916 53.112 26.546 122.65-9.167 131.934-67.851 26.886 1.608 53.825.92 80.74.84a376.973 376.973 0 0 0-.235 9.145c-.201.011.25.079.049.09-.016.07-.396 1.364-.368 1.404-.032-.08-.066-.158-.097-.238-.062 2.155.192 4.587.516 6.895.119.002-.068.015.051.017 3.991 30.524 29.502 55.202 59.871 59.132 56.628 5.387 94.512-58.17 63.122-105.682 7.862-3.529 4.606-10.055 7.599-16.313 3.795-7.154 7.885-14.161 11.518-21.415-1.532-1.26-3.065-2.546-4.585-3.819 9.911-34.107 23.714-67.053 39.779-98.713 2.041-4.834 8.023-9.554 5.106-15.177zM109.034 293.849c5.019-6.302 10.911-12.075 17.754-16.368 9.726 13.746 13.932 29.535 20.216 44.923-13.75-7.96-27.539-15.854-41.256-23.87.895-1.694 2.131-3.165 3.286-4.685zm-12.214 22.82c1.167-3.274 2.327-6.582 4.057-9.61 14.906 8.638 29.936 17.109 44.765 25.862-.265.963-.539 1.922-.832 2.875-17.225-.005-34.466.129-51.688-.043.354-6.493 1.648-12.917 3.698-19.084zm4.063 57.715c-4.652-8.9-7.158-18.905-7.776-28.905 17.254-.111 34.562-.259 51.794.058.231.972.493 1.937.74 2.906-14.878 8.711-29.864 17.245-44.758 25.941zm27.964 25.801c-.679 1.173-1.331 2.364-2.071 3.5-8.414-5.342-15.595-12.73-21.071-21.041 14.916-8.669 29.839-17.329 44.819-25.877a40.074 40.074 0 0 1 2.059 2.144c-7.739 13.843-15.869 27.494-23.736 41.274zm35.207 16.171c-9.958-.656-19.903-3.151-28.768-7.767 8.522-14.97 17.209-29.849 25.795-44.786 1.017.235 2.019.533 3.009.859.004 17.229.129 34.468-.036 51.694zm9.722.003c-.205-17.216-.073-34.448-.046-51.673a34.858 34.858 0 0 1 2.976-.874c8.663 14.941 17.378 29.858 25.911 44.874-8.979 4.444-18.835 7.109-28.841 7.673zm48.639-21.921c-3.536 3.427-7.292 6.692-11.483 9.293a4923.15 4923.15 0 0 1-25.871-44.798 48.915 48.915 0 0 1 2.144-2.077c15.01 8.441 29.888 17.166 44.789 25.817-2.677 4.303-6.034 8.159-9.579 11.765zm14.455-20.039c-11.668-6.745-23.337-13.483-34.997-20.237l3.694.342c1.283-.703 3.062-.334 4.477-.609-.189.269-.392.528-.588.793 1.949.008 3.899.087 5.848.841 5.421-1.021 11.112.438 16.625.801l.266.542c3.212.663 7.194-.213 10.139.984-.038-.195-.073-.392-.111-.587.257.004.514.013.771.017-1.314 5.935-3.343 11.712-6.124 17.113zm184.849-21.851c3.967-.729 7.983-1.162 11.999-1.396-4.053 2.323-8.23 4.449-12.592 6.117.185-1.57.382-3.152.593-4.721zm-28.856 2.991c2.113 1.038 2.966 3.374 4.09 5.277-4.127-.939-7.983-2.756-11.641-4.856 2.497-.236 5.018-.557 7.551-.421zm-42.127 2.657c18.387-2.297 27.497-2.081 43.66 8.008-14.719.304-29.442 1.181-44.166 1.335a94.21 94.21 0 0 1 .506-9.343zM356 393.094c-2.743-5.487-4.634-11.406-4.98-17.56 14.78-.655 29.572-1.199 44.376-1.693-13.138 6.34-25.729 14.138-39.396 19.253zm3.337 5.276c13.606-7.236 27.222-14.608 41.102-21.305-8.322 12.83-18.375 24.559-27.694 36.69-5.512-4.065-10.492-9.119-13.408-15.385zm36.764 26.495c-6.686-1.372-13.297-3.769-18.673-8.094 9.143-12.15 17.734-24.809 27.694-36.294-2.385 14.903-5.993 29.608-9.021 44.388zm5.746 1.051c2.694-15.212 5.45-30.449 8.984-45.501 4.042 14.716 8.424 29.561 10.776 44.636-6.524 1.174-13.161 1.31-19.76.865zm25.198-3.374c-3.534-14.879-7.823-29.56-11.48-44.401 10.307 11.406 20.283 23.303 29.461 35.627-5.302 4.041-11.098 8.304-17.981 8.774zm22.726-12.938c-10.468-11.148-20.479-22.864-29.807-34.985 13.964 5.635 27.496 12.321 41.163 18.66-2.101 6.438-6.537 11.728-11.356 16.325zm14.272-21.676c-14.559-5.588-28.947-11.947-42.844-19.019 15.472-.124 30.931-.927 46.403-.816.112 6.785-1.346 13.459-3.559 19.835zm2.855-25.234c-15.645.161-31.265 1.322-46.922 1.31 13.569-7.909 28.089-14.014 42.065-21.144 3.016 6.191 4.931 12.913 4.857 19.834z"/></svg>

<?xml version="1.0" encoding="iso-8859-1"?>
<!-- Generator: Adobe Illustrator 28.3.0, SVG Export Plug-In . SVG Version: 6.00 Build 0)  -->
<svg version="1.2" baseProfile="tiny" xmlns="http://www.w3.org/2000/svg" xmlns:xlink="http://www.w3.org/1999/xlink" x="0px"
	 y="0px" viewBox="0 0 600 600" overflow="visible" xml:space="preserve">
<g id="bg" display="none">
	<rect x="-825" y="-75" display="inline" fill="#CCCCCC" width="3750" height="1500"/>
</g>
<g id="scans" display="none">
</g>
<g id="icons">
	<path id="wagon" fill="#0B0B0B" d="M524.213,173.992c-1.174-3.176-4.646-4.572-7.823-4.14c-43.852,2.172-88.397,5.25-131.832,4.522
		c-56.256,4.287-112.06,1.427-168.386-0.728c-3.719-0.038-7.353-0.828-10.887-1.903c-5.783-1.903-11.629,1.137-17.499,0.754
		c-24.851,0-49.764-1.508-74.319-5.499c-4.906-0.704-9.688-2.373-14.668-2.422c-7.551-0.247-13.705,8.44-10.986,15.484
		c13.245,25.37,27.746,50.207,38.836,76.701c-69.509,34.106-67.929,136.957,2.564,168.916
		c53.112,26.546,122.65-9.167,131.934-67.851c26.886,1.608,53.825,0.92,80.74,0.84c-0.111,3.052-0.198,6.092-0.235,9.145
		c-0.201,0.011,0.25,0.079,0.049,0.09c-0.016,0.07-0.396,1.364-0.368,1.404c-0.032-0.08-0.066-0.158-0.097-0.238
		c-0.062,2.155,0.192,4.587,0.516,6.895c0.119,0.002-0.068,0.015,0.051,0.017c3.991,30.524,29.502,55.202,59.871,59.132
		c56.628,5.387,94.512-58.17,63.122-105.682c7.862-3.529,4.606-10.055,7.599-16.313c3.795-7.154,7.885-14.161,11.518-21.415
		c-1.532-1.26-3.065-2.546-4.585-3.819c9.911-34.107,23.714-67.053,39.779-98.713C521.148,184.335,527.13,179.615,524.213,173.992z
		 M109.034,293.849c5.019-6.302,10.911-12.075,17.754-16.368c9.726,13.746,13.932,29.535,20.216,44.923
		c-13.75-7.96-27.539-15.854-41.256-23.87C106.643,296.84,107.879,295.369,109.034,293.849z M96.82,316.669
		c1.167-3.274,2.327-6.582,4.057-9.61c14.906,8.638,29.936,17.109,44.765,25.862c-0.265,0.963-0.539,1.922-0.832,2.875
		c-17.225-0.005-34.466,0.129-51.688-0.043C93.476,329.26,94.77,322.836,96.82,316.669z M100.883,374.384
		c-4.652-8.9-7.158-18.905-7.776-28.905c17.254-0.111,34.562-0.259,51.794,0.058c0.231,0.972,0.493,1.937,0.74,2.906
		C130.763,357.154,115.777,365.688,100.883,374.384z M128.847,400.185c-0.679,1.173-1.331,2.364-2.071,3.5
		c-8.414-5.342-15.595-12.73-21.071-21.041c14.916-8.669,29.839-17.329,44.819-25.877c0.713,0.688,1.398,1.404,2.059,2.144
		C144.844,372.754,136.714,386.405,128.847,400.185z M164.054,416.356c-9.958-0.656-19.903-3.151-28.768-7.767
		c8.522-14.97,17.209-29.849,25.795-44.786c1.017,0.235,2.019,0.533,3.009,0.859C164.094,381.891,164.219,399.13,164.054,416.356z
		 M173.776,416.359c-0.205-17.216-0.073-34.448-0.046-51.673c0.978-0.335,1.971-0.627,2.976-0.874
		c8.663,14.941,17.378,29.858,25.911,44.874C193.638,413.13,183.782,415.795,173.776,416.359z M222.415,394.438
		c-3.536,3.427-7.292,6.692-11.483,9.293c-8.706-14.887-17.324-29.824-25.871-44.798c0.691-0.713,1.407-1.404,2.144-2.077
		c15.01,8.441,29.888,17.166,44.789,25.817C229.317,386.976,225.96,390.832,222.415,394.438z M236.87,374.399
		c-11.668-6.745-23.337-13.483-34.997-20.237c1.225,0.114,2.452,0.228,3.694,0.342c1.283-0.703,3.062-0.334,4.477-0.609
		c-0.189,0.269-0.392,0.528-0.588,0.793c1.949,0.008,3.899,0.087,5.848,0.841c5.421-1.021,11.112,0.438,16.625,0.801
		c0.089,0.18,0.177,0.362,0.266,0.542c3.212,0.663,7.194-0.213,10.139,0.984c-0.038-0.195-0.073-0.392-0.111-0.587
		c0.257,0.004,0.514,0.013,0.771,0.017C241.68,363.221,239.651,368.998,236.87,374.399z M421.719,352.548
		c3.967-0.729,7.983-1.162,11.999-1.396c-4.053,2.323-8.23,4.449-12.592,6.117C421.311,355.699,421.508,354.117,421.719,352.548z
		 M392.863,355.539c2.113,1.038,2.966,3.374,4.09,5.277c-4.127-0.939-7.983-2.756-11.641-4.856
		C387.809,355.724,390.33,355.403,392.863,355.539z M350.736,358.196c18.387-2.297,27.497-2.081,43.66,8.008
		c-14.719,0.304-29.442,1.181-44.166,1.335C350.242,364.412,350.415,361.297,350.736,358.196z M356,393.094
		c-2.743-5.487-4.634-11.406-4.98-17.56c14.78-0.655,29.572-1.199,44.376-1.693C382.258,380.181,369.667,387.979,356,393.094z
		 M359.337,398.37c13.606-7.236,27.222-14.608,41.102-21.305c-8.322,12.83-18.375,24.559-27.694,36.69
		C367.233,409.69,362.253,404.636,359.337,398.37z M396.101,424.865c-6.686-1.372-13.297-3.769-18.673-8.094
		c9.143-12.15,17.734-24.809,27.694-36.294C402.737,395.38,399.129,410.085,396.101,424.865z M401.847,425.916
		c2.694-15.212,5.45-30.449,8.984-45.501c4.042,14.716,8.424,29.561,10.776,44.636C415.083,426.225,408.446,426.361,401.847,425.916
		z M427.045,422.542c-3.534-14.879-7.823-29.56-11.48-44.401c10.307,11.406,20.283,23.303,29.461,35.627
		C439.724,417.809,433.928,422.072,427.045,422.542z M449.771,409.604c-10.468-11.148-20.479-22.864-29.807-34.985
		c13.964,5.635,27.496,12.321,41.163,18.66C459.026,399.717,454.59,405.007,449.771,409.604z M464.043,387.928
		c-14.559-5.588-28.947-11.947-42.844-19.019c15.472-0.124,30.931-0.927,46.403-0.816
		C467.714,374.878,466.256,381.552,464.043,387.928z M466.898,362.694c-15.645,0.161-31.265,1.322-46.922,1.31
		c13.569-7.909,28.089-14.014,42.065-21.144C465.057,349.051,466.972,355.773,466.898,362.694z"/>
</g>
<g id="text">
</g>
<g id="guides">
</g>
<g id="scratch" display="none">
</g>
</svg>
